static/icon_close.svg

<svg fill="none" height="24" viewBox="0 0 24 24" width="24" xmlns="http://www.w3.org/2000/svg"><path clip-rule="evenodd" d="m12 2c-5.53 0-10 4.47-10 10s4.47 10 10 10 10-4.47 10-10-4.47-10-10-10zm2.59 6-2.59 2.59-2.59-2.59-1.41 1.41 2.59 2.59-2.59 2.59 1.41 1.41 2.59-2.59 2.59 2.59 1.41-1.41-2.59-2.59 2.59-2.59zm-10.59 4c0 4.41 3.59 8 8 8s8-3.59 8-8-3.59-8-8-8-8 3.59-8 8z" fill="#fff" fill-rule="evenodd"/></svg>

<svg width="24" height="24" viewBox="0 0 24 24" fill="none" xmlns="http://www.w3.org/2000/svg">
<g id="highlight_off_24px">
<path id="icon/action/highlight_off_24px" fill-rule="evenodd" clip-rule="evenodd" d="M12 2C6.47 2 2 6.47 2 12C2 17.53 6.47 22 12 22C17.53 22 22 17.53 22 12C22 6.47 17.53 2 12 2ZM14.59 8L12 10.59L9.41 8L8 9.41L10.59 12L8 14.59L9.41 16L12 13.41L14.59 16L16 14.59L13.41 12L16 9.41L14.59 8ZM4 12C4 16.41 7.59 20 12 20C16.41 20 20 16.41 20 12C20 7.59 16.41 4 12 4C7.59 4 4 7.59 4 12Z" fill="white"/>
</g>
</svg>
